X:2003
T:Miss Bennet's Jig
P:Miss Betty Hunter
C:Charles Duff
R:Jig (8x32)
B:RSCDS 20-3
Z:Anselm Lingnau <anselm@strathspey.org>
M:6/8
L:1/8
K:Eb
|:B|"Eb"e2B G>BG|E2E E2G|"Fm"A2G F2E|"Bb"EDC B,2 B|
    "Eb"e2B G>BG|E2E E2B|"Fm"c2A "Bb7"F2D|"Eb"E2E E2:|
|:B|"Eb"B2B B>c_d|"Ab"_dcc c3|"F7"c2c cde|"Bb"edd "Bb7"d2 B|
    "Eb"e2B g2e|"Bb"bbg "Cm"e2c|"Fm"ccA "Bb7"F2D|"Eb"E2E E2:|
